public/icon/shield.svg

<svg width="24" height="24" viewBox="0 0 24 24" fill="none" xmlns="http://www.w3.org/2000/svg">
<path d="M22.8143 9.21599L21.9883 3.84799C21.952 3.61196 21.8325 3.3967 21.6513 3.24117C21.47 3.08563 21.2391 3.00008 21.0003 2.99999C15.5333 2.99999 12.7313 0.31599 12.7073 0.29299C12.52 0.106739 12.2665 0.00219727 12.0023 0.00219727C11.7382 0.00219727 11.4847 0.106739 11.2973 0.29299C11.2693 0.31599 8.46734 2.99999 3.00034 2.99999C2.76153 3.00008 2.53064 3.08563 2.34942 3.24117C2.16821 3.3967 2.04864 3.61196 2.01234 3.84799L1.18634 9.21599C0.815855 11.6545 1.20366 14.1479 2.29723 16.3587C3.39081 18.5694 5.13734 20.3907 7.30034 21.576L11.5203 23.876C11.6673 23.9562 11.832 23.9982 11.9993 23.9982C12.1667 23.9982 12.3314 23.9562 12.4783 23.876L16.6983 21.576C18.8617 20.391 20.6086 18.5698 21.7026 16.359C22.7965 14.1483 23.1846 11.6547 22.8143 9.21599ZM15.7423 19.816L12.0003 21.861L8.25834 19.82C6.45506 18.8328 4.99872 17.3154 4.0865 15.473C3.17428 13.6307 2.85027 11.5526 3.15834 9.51999L3.85834 4.97899C6.77803 4.91361 9.61226 3.98105 12.0003 2.29999C14.3875 3.98085 17.2206 4.91373 20.1393 4.97999L20.8393 9.51999C21.1477 11.5522 20.8241 13.6302 19.9124 15.4725C19.0008 17.3147 17.5451 18.8324 15.7423 19.82V19.816Z" fill="white"/>
<path d="M15.2926 8.29292L9.99959 13.5859L8.70659 12.2929C8.61435 12.1974 8.504 12.1212 8.382 12.0688C8.25999 12.0164 8.12877 11.9888 7.99599 11.9877C7.86321 11.9865 7.73154 12.0118 7.60864 12.0621C7.48574 12.1124 7.37409 12.1866 7.2802 12.2805C7.18631 12.3744 7.11205 12.4861 7.06177 12.609C7.01149 12.7319 6.98619 12.8635 6.98734 12.9963C6.9885 13.1291 7.01608 13.2603 7.06849 13.3823C7.1209 13.5043 7.19708 13.6147 7.29259 13.7069L9.29259 15.7069C9.48012 15.8944 9.73443 15.9997 9.99959 15.9997C10.2648 15.9997 10.5191 15.8944 10.7066 15.7069L16.7066 9.70692C16.8888 9.51832 16.9895 9.26571 16.9873 9.00352C16.985 8.74132 16.8798 8.49051 16.6944 8.3051C16.509 8.11969 16.2582 8.01452 15.996 8.01224C15.7338 8.00997 15.4812 8.11076 15.2926 8.29292Z" fill="white"/>
</svg>

<svg xmlns="http://www.w3.org/2000/svg" width="24" height="24" fill="none"><path fill="#fff" d="m22.814 9.216-.826-5.368A1 1 0 0 0 21 3C15.533 3 12.731.316 12.707.293a1 1 0 0 0-1.41 0C11.27.316 8.467 3 3 3a1 1 0 0 0-.988.848l-.826 5.368A12.033 12.033 0 0 0 7.3 21.576l4.22 2.3a1 1 0 0 0 .958 0l4.22-2.3a12.033 12.033 0 0 0 6.116-12.36Zm-7.072 10.6L12 21.861 8.258 19.82a10.029 10.029 0 0 1-5.1-10.3l.7-4.541A14.717 14.717 0 0 0 12 2.3a14.717 14.717 0 0 0 8.14 2.68l.7 4.54a10.028 10.028 0 0 1-5.098 10.3v-.004Z"/><path fill="#fff" d="M15.293 8.293 10 13.586l-1.293-1.293a1 1 0 1 0-1.414 1.414l2 2a1 1 0 0 0 1.414 0l6-6a1 1 0 0 0-1.414-1.414Z"/></svg>
